libs/ui/packages/crypto-icons/src/svg/CHAT.svg

<svg width="24" height="24" viewBox="0 0 24 24" fill="none">
<path fill-rule="evenodd" clip-rule="evenodd" d="M12.21 17.4937C12.7377 17.457 13.261 17.3717 13.773 17.2387C14.4049 17.4315 15.0729 17.4752 15.7245 17.3662C15.7503 17.3621 15.7764 17.36 15.8025 17.3602C16.035 17.3602 16.3402 17.4952 16.785 17.7802V17.3115C16.7851 17.2304 16.8067 17.1508 16.8477 17.0808C16.8887 17.0108 16.9476 16.953 17.0182 16.9132C17.2118 16.8037 17.3918 16.6777 17.556 16.539C18.204 15.99 18.57 15.258 18.57 14.4825C18.57 14.2222 18.5287 13.9695 18.4508 13.728C18.6465 13.3627 18.8048 12.9787 18.921 12.5805C19.2969 13.1437 19.4983 13.8053 19.5 14.4825C19.5 15.5362 19.0095 16.5187 18.1613 17.2372C18.0197 17.357 17.8706 17.4678 17.715 17.5687V18.6645C17.715 19.0417 17.28 19.2585 16.9733 19.0342C16.6832 18.8174 16.3828 18.6146 16.0732 18.4267C15.9846 18.3737 15.8924 18.3268 15.7972 18.2865C15.5422 18.3247 15.2812 18.3442 15.018 18.3442C13.959 18.3442 12.981 18.027 12.2108 17.4937H12.21ZM6.6105 15.3022C5.2725 14.1675 4.5 12.6217 4.5 10.965C4.5 7.58022 7.6935 4.87497 11.5927 4.87497C15.4928 4.87497 18.6863 7.58022 18.6863 10.965C18.6863 14.3505 15.492 17.0557 11.5927 17.0557C11.1547 17.0557 10.7213 17.022 10.2968 16.9545C10.113 16.998 9.37875 17.4345 8.3205 18.207C7.93725 18.4875 7.3935 18.2167 7.3935 17.745V15.876C7.11945 15.7032 6.85781 15.5115 6.6105 15.3022ZM10.3222 15.8017C10.3545 15.8017 10.3875 15.804 10.4197 15.8092C10.8022 15.8737 11.1953 15.9067 11.5927 15.9067C14.8868 15.9067 17.523 13.6732 17.523 10.965C17.523 8.25747 14.8868 6.02397 11.5927 6.02397C8.30025 6.02397 5.6625 8.25747 5.6625 10.965C5.6625 12.2745 6.27825 13.5075 7.36725 14.43C7.641 14.661 7.94175 14.871 8.26425 15.054C8.445 15.156 8.55675 15.3465 8.55675 15.552V16.6297C9.39375 16.068 9.94425 15.8017 10.3222 15.8017ZM8.5695 12.1147C8.05575 12.1147 7.6395 11.7022 7.6395 11.1952C7.6395 10.6875 8.05575 10.2757 8.5695 10.2757C9.08325 10.2757 9.4995 10.6875 9.4995 11.1952C9.4995 11.703 9.08325 12.1147 8.5695 12.1147ZM11.5927 12.1147C11.079 12.1147 10.6628 11.7022 10.6628 11.1952C10.6628 10.6875 11.079 10.2757 11.5927 10.2757C12.1065 10.2757 12.5228 10.6875 12.5228 11.1952C12.5228 11.703 12.1065 12.1147 11.5927 12.1147ZM14.616 12.1147C14.1023 12.1147 13.686 11.7022 13.686 11.1952C13.686 10.6875 14.1023 10.2757 14.616 10.2757C15.1298 10.2757 15.546 10.6875 15.546 11.1952C15.546 11.703 15.1298 12.1147 14.616 12.1147Z" fill="#1C98F7"/>
</svg>

<svg width="24" height="24" viewBox="0 0 24 24" fill="none"><path fill="#1c98f7" fill-rule="evenodd" d="M12.21 17.494a8.6 8.6 0 0 0 1.563-.255c.632.192 1.3.236 1.952.127l.078-.006c.232 0 .537.135.982.42v-.469a.46.46 0 0 1 .233-.398q.291-.165.538-.374c.648-.549 1.014-1.281 1.014-2.057q0-.39-.12-.754.296-.55.471-1.147a3.44 3.44 0 0 1 .579 1.902c0 1.053-.49 2.036-1.339 2.754q-.212.18-.446.332v1.096a.466.466 0 0 1-.742.37q-.435-.326-.9-.608-.132-.08-.276-.14a5 5 0 0 1-.779.057 4.93 4.93 0 0 1-2.807-.85zm-5.6-2.192c-1.338-1.134-2.11-2.68-2.11-4.337 0-3.385 3.194-6.09 7.093-6.09s7.093 2.705 7.093 6.09c0 3.386-3.194 6.09-7.093 6.09q-.659 0-1.296-.1c-.184.043-.918.48-1.977 1.252a.581.581 0 0 1-.926-.462v-1.869a7 7 0 0 1-.784-.574m3.712.5q.05 0 .098.007.575.098 1.173.098c3.294 0 5.93-2.234 5.93-4.942s-2.636-4.941-5.93-4.941-5.93 2.233-5.93 4.941c0 1.31.615 2.543 1.704 3.465q.412.348.897.624a.57.57 0 0 1 .293.498v1.078c.837-.562 1.387-.828 1.765-.828M8.57 12.115a.925.925 0 0 1-.93-.92c0-.508.416-.92.93-.92.513 0 .93.412.93.92s-.417.92-.93.92m3.023 0a.925.925 0 0 1-.93-.92c0-.508.416-.92.93-.92s.93.412.93.92-.416.92-.93.92m3.023 0a.925.925 0 0 1-.93-.92c0-.508.416-.92.93-.92s.93.412.93.92-.416.92-.93.92" clip-rule="evenodd"/></svg>
